docs/local/img/block6/score.svg

<svg width="115" height="130" viewBox="0 0 115 130" fill="none" xmlns="http://www.w3.org/2000/svg">
<path d="M107.093 106.442C102.219 98.8259 95.5757 98.0664 95.5757 98.0664C95.5757 98.0664 96.6942 99.0911 97.1951 99.5944C97.5023 99.8958 97.8096 100.221 98.1169 100.538C100.713 103.289 102.419 105.845 103.485 108.579C104.478 111.119 104.736 113.458 104.275 115.73C104.083 116.706 103.739 117.648 103.255 118.521L93.4554 108.548L98.0954 104.028H95.3298C93.861 104.028 92.3399 104.028 90.8465 104.028C90.4973 104.057 90.1703 104.207 89.9247 104.453C88.4866 105.706 87.1007 106.93 85.93 107.964C85.297 108.524 84.6639 109.091 84.0524 109.636L82.7403 110.809L86.9624 115.043L87.5494 114.501C87.6508 114.41 87.7552 114.314 87.8566 114.217L88.5296 113.557C89.1718 112.93 89.8356 112.286 90.4809 111.635C92.4536 113.845 94.4305 116.055 96.4115 118.265L98.836 120.977L99.8715 122.147L99.89 122.168L99.8531 122.192C98.4384 123.141 96.786 123.692 95.0748 123.786C93.1389 123.874 91.584 123.413 90.3272 122.382C89.7127 121.882 89.1319 121.318 88.5634 120.772C88.2746 120.495 87.9857 120.218 87.6907 119.944C87.5555 119.82 87.451 119.715 87.3834 119.642C86.7689 119.04 86.4431 119.039 85.7272 119.431C85.6227 119.489 85.4998 119.555 85.3431 119.633C85.0136 119.841 84.6244 119.938 84.2337 119.91C84.0513 119.869 83.8616 119.871 83.68 119.916C83.4984 119.96 83.3302 120.046 83.189 120.167C83.0531 120.299 82.9513 120.461 82.8919 120.64C82.8326 120.819 82.8175 121.009 82.8479 121.194C82.8479 121.306 82.8479 121.378 82.5744 121.631C81.9273 122.247 81.163 122.731 80.3251 123.057C79.0924 123.525 78.0352 124.352 77.2952 125.426C76.6807 126.285 76.6407 127.234 77.1785 127.951C77.4829 128.334 77.9085 128.606 78.3881 128.725C78.8677 128.844 79.374 128.803 79.8273 128.608C80.8505 128.186 82.1319 127.526 82.9892 126.137C83.5115 125.336 84.0906 124.573 84.7223 123.853C84.7675 123.8 84.8235 123.758 84.8865 123.729C84.9496 123.7 85.0183 123.685 85.088 123.684C85.3321 123.675 85.5697 123.762 85.7487 123.925C85.9668 124.13 86.185 124.335 86.4001 124.543C87.2294 125.377 88.1322 126.137 89.0981 126.815C91.3904 128.316 93.7463 129.066 96.1657 129.066C98.2763 129.035 100.349 128.509 102.21 127.532C102.717 127.279 103.196 126.978 103.663 126.689L103.851 126.571L105.612 128.524L109.573 124.959L109.124 124.494L108.611 123.958C108.227 123.554 107.861 123.174 107.483 122.798C108.624 121.102 109.369 119.179 109.665 117.168C110.166 113.503 109.302 109.896 107.093 106.442Z" fill="#4363A0"/>
<path d="M35.4167 122.922L44.8027 115.808L41.5343 115.138L43.149 108.987L37.6246 110.2L37.2442 107.19L32.6995 111.54L34.0176 101.623L30.3207 103.214L27.8042 98.0664L25.2847 103.214L21.5908 101.623L22.906 111.54L18.3643 107.19L17.9808 110.2L12.4594 108.987L14.0742 115.138L10.8027 115.808L20.1888 122.922L18.4901 126.52L27.4327 123.79L27.0972 128.066H27.8042H28.5083L28.1757 123.79L37.1154 126.52L35.4167 122.922Z" fill="#4363A0"/>
<path d="M27.5536 0.296404C15.7836 0.296404 10.2836 7.8864 10.2836 19.6564V23.1764H18.3136V19.2164C18.3136 12.2864 21.1736 7.9964 27.3336 7.9964C33.6036 7.9964 36.3536 12.0664 36.3536 19.9864V23.5064C36.3536 30.2164 32.8336 33.8464 27.1136 34.0664H22.0536V41.7664H26.6736C33.1636 41.9864 36.3536 45.6164 36.3536 53.2064V59.1464C36.3536 66.9564 33.6036 71.0264 27.3336 71.0264C21.1736 71.0264 18.3136 66.8464 18.3136 59.9164V54.0864H10.2836V59.3664C10.2836 71.1364 15.7836 78.8364 27.5536 78.8364C39.4336 78.8364 44.9336 71.1364 44.9336 59.3664V53.4264C44.9336 45.7264 42.0736 39.8964 35.5836 37.4764C41.7436 35.1664 44.9336 29.5564 44.9336 21.6364V19.6564C44.9336 7.8864 39.4336 0.296404 27.5536 0.296404ZM57.6627 25.4864V36.1564H65.9127V25.4864H57.6627ZM57.6627 67.3964V78.0664H65.9127V67.3964H57.6627ZM85.0828 78.0664H93.6628L113.463 8.5464V1.0664H78.5928V8.7664H104.773L85.0828 78.0664Z" fill="#4363A0"/>
</svg>

<svg width="115" height="130" viewBox="0 0 115 130" fill="none" xmlns="http://www.w3.org/2000/svg"><path d="M107.093 106.442c-4.874-7.616-11.517-8.376-11.517-8.376s1.118 1.025 1.62 1.528c.306.302.614.627.92.944 2.597 2.751 4.303 5.307 5.369 8.041.993 2.54 1.251 4.879.79 7.151a9.565 9.565 0 01-1.02 2.791l-9.8-9.973 4.64-4.52h-7.248a1.47 1.47 0 00-.922.425 781.596 781.596 0 00-3.995 3.511c-.633.56-1.266 1.127-1.878 1.672l-1.312 1.173 4.222 4.234.587-.542c.102-.091.206-.187.308-.284l.673-.66c.642-.627 1.306-1.271 1.95-1.922 1.974 2.21 3.95 4.42 5.931 6.63l2.425 2.712 1.035 1.17.019.021-.037.024a9.516 9.516 0 01-4.778 1.594c-1.936.088-3.491-.373-4.748-1.404-.614-.5-1.195-1.064-1.764-1.61a74.864 74.864 0 00-.872-.828 5.503 5.503 0 01-.308-.302c-.614-.602-.94-.603-1.656-.211a9.432 9.432 0 01-.384.202c-.33.208-.719.305-1.11.277a1.205 1.205 0 00-1.044.257 1.175 1.175 0 00-.341 1.027c0 .112 0 .184-.274.437a6.877 6.877 0 01-2.249 1.426 6.46 6.46 0 00-3.03 2.369c-.614.859-.654 1.808-.117 2.525.305.383.73.655 1.21.774s.986.078 1.44-.117c1.022-.422 2.304-1.082 3.161-2.471a20.157 20.157 0 011.733-2.284.478.478 0 01.366-.169.931.931 0 01.66.241c.219.205.437.41.652.618a20.08 20.08 0 002.698 2.272c2.292 1.501 4.648 2.251 7.068 2.251a13.433 13.433 0 006.044-1.534c.507-.253.986-.554 1.453-.843l.188-.118 1.761 1.953 3.961-3.565-.449-.465-.513-.536c-.384-.404-.75-.784-1.128-1.16a13.646 13.646 0 002.182-5.63c.501-3.665-.363-7.272-2.572-10.726zm-71.676 16.48l9.386-7.114-3.269-.67 1.615-6.151-5.524 1.213-.38-3.01-4.545 4.35 1.318-9.917-3.697 1.591-2.517-5.148-2.52 5.148-3.693-1.591 1.315 9.917-4.542-4.35-.383 3.01-5.522-1.213 1.615 6.151-3.271.67 9.386 7.114-1.699 3.598 8.943-2.73-.336 4.276h1.411l-.332-4.276 8.94 2.73-1.7-3.598zM27.554.296c-11.77 0-17.27 7.59-17.27 19.36v3.52h8.03v-3.96c0-6.93 2.86-11.22 9.02-11.22 6.27 0 9.02 4.07 9.02 11.99v3.52c0 6.71-3.52 10.34-9.24 10.56h-5.06v7.7h4.62c6.49.22 9.68 3.85 9.68 11.44v5.94c0 7.81-2.75 11.88-9.02 11.88-6.16 0-9.02-4.18-9.02-11.11v-5.83h-8.03v5.28c0 11.77 5.5 19.47 17.27 19.47 11.88 0 17.38-7.7 17.38-19.47v-5.94c0-7.7-2.86-13.53-9.35-15.95 6.16-2.31 9.35-7.92 9.35-15.84v-1.98c0-11.77-5.5-19.36-17.38-19.36zm30.109 25.19v10.67h8.25v-10.67h-8.25zm0 41.91v10.67h8.25v-10.67h-8.25zm27.42 10.67h8.58l19.8-69.52v-7.48h-34.87v7.7h26.18l-19.69 69.3z" fill="#4363A0"/></svg>
